apps/trade/public/tokens/trx.svg

<svg width="24" height="25" viewBox="0 0 24 25" fill="none" xmlns="http://www.w3.org/2000/svg">
<path d="M12 24.5C18.6299 24.5 24 19.1262 24 12.5C24 5.87385 18.6299 0.5 12 0.5C5.37012 0.5 0 5.87385 0 12.5C0 19.1262 5.37471 24.5 12 24.5Z" fill="#FF060A"/>
<path d="M18.5469 10.5127C17.8848 9.89858 16.9653 8.96296 16.2204 8.30082L16.1745 8.27203C16.1009 8.21446 16.0181 8.16648 15.9308 8.13289C14.1285 7.79703 5.74228 6.22805 5.58136 6.24724C5.53538 6.25204 5.48941 6.27124 5.45263 6.29523L5.41125 6.32881C5.36067 6.38159 5.31929 6.44397 5.2963 6.51594L5.28711 6.54473V6.70306V6.72705C6.22964 9.3564 9.95837 17.9642 10.694 19.9889C10.74 20.1281 10.8227 20.3872 10.9791 20.4016H11.0158C11.0986 20.4016 11.4572 19.9266 11.4572 19.9266C11.4572 19.9266 17.8618 12.1633 18.5101 11.338C18.5929 11.2372 18.6664 11.1269 18.7308 11.0117C18.7492 10.9206 18.74 10.8294 18.7078 10.743C18.6756 10.6567 18.6158 10.5751 18.5469 10.5127ZM13.094 11.4196L15.825 9.15488L17.4296 10.6327L13.094 11.4196ZM12.0319 11.2708L7.32849 7.41318L14.9423 8.81902L12.0319 11.2708ZM12.4549 12.2784L17.2687 11.5011L11.7653 18.1369L12.4549 12.2784ZM6.68941 7.80182L11.6411 12.0001L10.9239 18.1417L6.68941 7.80182Z" fill="white"/>
</svg>

<svg width="24" height="25" fill="none" xmlns="http://www.w3.org/2000/svg">
    <path d="M12 24.5c6.63 0 12-5.374 12-12S18.63.5 12 .5 0 5.874 0 12.5s5.375 12 12 12Z" fill="#FF060A"/>
    <path d="M18.547 10.513c-.662-.614-1.582-1.55-2.327-2.212l-.046-.029a.956.956 0 0 0-.243-.14C14.129 7.798 5.742 6.229 5.58 6.248a.3.3 0 0 0-.128.048l-.042.034a.485.485 0 0 0-.115.187l-.009.029v.182c.943 2.63 4.671 11.237 5.407 13.262.046.14.129.398.285.413h.037c.083 0 .441-.475.441-.475s6.405-7.764 7.053-8.589c.083-.1.156-.211.22-.326a.487.487 0 0 0-.022-.269.61.61 0 0 0-.161-.23Zm-5.453.907 2.731-2.265 1.605 1.478-4.336.787Zm-1.062-.15L7.328 7.414l7.614 1.406-2.91 2.452Zm.423 1.008 4.814-.777-5.504 6.636.69-5.859ZM6.689 7.802 11.641 12l-.717 6.142-4.235-10.34Z" fill="#fff"/>
</svg>
